!! 00000] TT[WS
!!!OTL: NÅer de xin
!!!ARE: Asia, China, Shanxi Wutai
!! Ethnic Group: Han
!! WII, 132
!!!SCT: J0603
!!!YEM: Copyright 1995, estate of Helmut Schaffrath.
**kern
*ICvox
*Ivox
*M2/4
*k[f#]
*G:
{8g
8e
4d
=1
8g
8e
4d
=2
8a
16a
16a
8a
16a
16a
=3
8a
8ee
8dd
8dd
=4
8b
8dd
8e
16e
16g
=5
2a}
=6
{8.a
16b
8dd
8dd
=7
4ee
8dd
8b
=8
8a
8a
8dd
8a
=9
8.g
16e
8d
8e
=10
2d}
=11
{16g
16g
16e
16g
16a
16a
16a
16b
=12
8a
8e
4d
=13
8g
16e
16g
8a
8a
=14
8g
16g
16e
4d}
=15
{8.a
16b
8dd
8dd
=16
8a
8a
8b
8a
=17
8g
16g
16e
[4d
=18
4d]
4r}
==
!!!AGN: Xiaodiao. Qingge, Aisu
!!!ONB: ESAC (Essen Associative Code) Database: CHINA
!!!AMT: simple duple
!!!AIN: vox
!!!EED: Helmut Schaffrath
!!!EEV: 1.0
*-
!!!ONB: Tied note syntax fixed by Craig Sapp, 2004/05/03/
